X: 33446
T: Rabbit's Ear, The
R: jig
M: 6/8
K: Gmajor
|:GFG BAB|dge dBG|EAB cAG|FAF DFA|
GFG BAB|dge dBG|EAB cAG|1 FAF G2D:|2 FAF G2f||
|:gfg bag|f/g/af dfa|gdB cAG|1 FAF DFA:|
[2 FAF G2f:|3 FAF DFA|GBd cde|dfa gdc|
B/c/dB cAG|FAF G3||

